actions/22x22-dark/stroke-cap-round.svg

<svg xmlns="http://www.w3.org/2000/svg" viewBox="0 0 22 22">
 <defs id="defs3051">
   <style type="text/css" id="current-color-scheme">
     .ColorScheme-Text {
       color:#f2f2f2;
     }
     </style>
 </defs>
   <path
      style="fill:currentColor;fill-opacity:1;stroke:none"
      d="m11 3c-2.7699987 0-5 2.2300013-5 5v6 5h1 3v-.099609-.175782-1.724609-8-1c0-.554.446-1 1-1s1 .446 1 1v9 1 .724609.175782.099609h1 2 1v-1-9-1c0-2.7699997-2.230001-5-5-5z"
      class="ColorScheme-Text" />
</svg>

<svg xmlns="http://www.w3.org/2000/svg" viewBox="0 0 22 22">
  <defs id="defs3051">
    <style type="text/css" id="current-color-scheme">
      .ColorScheme-Text {
        color:#f2f2f2
      }
      </style>
  </defs>
 <path 
     style="fill:currentColor;fill-opacity:1;stroke:none"      
	 class="ColorScheme-Text"
     d="M 11 3 C 8.2300013 3 6 5.2300013 6 8 L 6 14 L 6 19 L 7 19 L 10 19 L 10 18.900391 L 10 18.724609 L 10 17 L 10 9 L 10 8 C 10 7.446 10.446 7 11 7 C 11.554 7 12 7.446 12 8 L 12 17 L 12 18 L 12 18.724609 L 12 18.900391 L 12 19 L 13 19 L 15 19 L 16 19 L 16 18 L 16 9 L 16 8 C 16 5.2300003 13.769999 3 11 3 z "
     />
</svg>
